X: 21352
T: BONNY WEE THING
Q: "Slow, with Expression"
%R: strathspey
B: "Edinburgh Repository of Music" v.2 p.135 #2
F: http://digital.nls.uk/special-collections-of-printed-music/pageturner.cfm?id=87776133
Z: 2015 John Chambers <jc:trillian.mit.edu>
M: C|
L: 1/16
K: B
|:\
fd3 {d}c3B G3A B4 | fd3 {d}c2B2 {ef}g4 f4 |\
{f}e2d2 {d}c2B2 G3A B4  | F4 G3A B8 :|\
B6 g2 fd3c3B | fd3c2B2 c3d/e/ d4 |
B6 A2 B2c2d2e2 | f4 {f}e3d d4 c4 |\
B6 g2 fd3 g4 | fd3 g4 fd3 c2B2 |\
{f}e2d2{d}c2B2 G3A B4 | F4 G3A B8 |]

%%sep 2 1 500
%%sep 1 1 500

